!!!COM:	Ockeghem, Johannes
!!!CDT:	~1425-1497/02/06
!!!OPR:	Missa Caput
!!!ONM:	4
!!!OTL:	Sanctus
!!!AGN:	Mass; Sanctus
!!!SCT:	Ock1003d
!!!voices:	4
!!!voices-OPR:	4
**kern	**kern	**kern	**kern
*staff4	*staff3	*staff2	*staff1
*Ivox	*Ivox	*Ivox	*Ivox
*I"Tenor1	*I"Tenor2	*I"Contratenor	*I"Discantus
*I'T1	*I'T2	*I'Ct	*I'D
*clefF4	*clefGv2	*clefGv2	*clefG2
*k[]	*k[]	*k[]	*k[]
*M3/1	*M3/1	*M3/1	*M3/1
*met(O)	*met(O)	*met(O)	*met(O)
=1-	=1-	=1-	=1-
!!section: Sanctus
!!!OMD: Sanctus
0.r	0.r	0.A	0.a
=2	=2	=2	=2
0.r	0.r	1c	1g
.	.	1.d	1.f
.	.	2c\	2e/
=3	=3	=3	=3
0.r	0.r	1c	1e
.	.	1.B	1.d
.	.	2A/	2c/
=4	=4	=4	=4
0.r	0.r	1.A	2.c/
.	.	.	4d/
.	.	.	2f/
.	.	2G/	1e
.	.	1F	.
.	.	.	2a/
=5	=5	=5	=5
0.r	0.r	1E	2g/
.	.	.	1cc
.	.	2A/	.
.	.	2G/	2b\
.	.	1c	2g/
.	.	.	2a/
=6	=6	=6	=6
0.r	0.r	2B\	2.g/
.	.	1G	.
.	.	.	4e/
.	.	.	4e/
.	.	.	4d/
.	.	2B\	1g
.	.	1A	.
.	.	.	2f#i/
=7	=7	=7	=7
!!linebreak:original
0.r	0.r	1G	1.g
.	.	1r	.
.	.	.	2a/
.	.	[1d	2b\
.	.	.	2cc\
=8	=8	=8	=8
0.r	0.r	1d]	1b
.	.	0c	1.a
.	.	.	2f#/
=9	=9	=9	=9
0.r	0.r	0.d	0.f#i
=10	=10	=10	=10
0.r	0.r	0.r	2.f#i/
.	.	.	4g/
.	.	.	2b\
.	.	.	1a
.	.	.	2f#i/
=11	=11	=11	=11
0.r	0.r	2.B\	2g/
.	.	.	1e
.	.	4c\	.
.	.	2e\	.
.	.	1d	2f/
.	.	.	2d/
.	.	2B\	[2g/
=12	=12	=12	=12
0.r	0.r	2c\	2g/]
.	.	2A/	2f/
.	.	2G/	2g/
.	.	1c	2.e/
.	.	.	4d/
.	.	2B\	[2g/
=13	=13	=13	=13
0.r	0.r	1A	4g/]
.	.	.	4a/
.	.	.	2cc\
.	.	2G/	2b\
.	.	1c	2g/
.	.	.	2.a/
.	.	2d\	.
.	.	.	8g/L
.	.	.	8a/J
=14	=14	=14	=14
!!linebreak:original
0.r	0.r	2e\	2g/
.	.	1d	2f/
.	.	.	1e
.	.	2c\	.
.	.	2B\	1d
.	.	[2d\	.
=15	=15	=15	=15
0.r	0.r	2d\]	2f/
.	.	2c\	1e
.	.	1e	.
.	.	.	2c/
.	.	1d	2B/
.	.	.	[2A/
=16	=16	=16	=16
0.r	0.r	2c\	2A/]
.	.	2B\	1G
.	.	1e	.
.	.	.	2g/
.	.	2d\	2a/
.	.	2B\	2b\
=17	=17	=17	=17
0.r	0.r	2A/	2cc\
.	.	1d	4b\
.	.	.	2a/
.	.	.	4g/
.	.	2G/	2.g/
.	.	1A	.
.	.	.	4e/
.	.	.	2f#i/
=18	=18	=18	=18
0.r	1G	1G	1.g
.	1.c	1r	.
.	.	.	2.a/
.	.	1A	.
.	.	.	4g/
.	2B\	.	2e/
=19	=19	=19	=19
[0.BB	1.B	2.B\	0d
.	.	4c\	.
.	.	1d	.
.	1d	.	.
.	.	2.G/	1r
.	2c\	.	.
.	.	4F/	.
=20	=20	=20	=20
0.BB]	2B\	1D	1r
.	1G	.	.
.	.	1r	1r
.	2F/	.	.
.	2G/	1r	1g
.	2E/	.	.
=21	=21	=21	=21
!!pagebreak:original
[0.D	0.D	0.d	1.f
.	.	.	2g/
.	.	.	2a/
.	.	.	4g/
.	.	.	4a/
=22	=22	=22	=22
0.D]	1r	1A	2b-i\
.	.	.	1a
.	1r	0d	.
.	.	.	2g/
.	2.A/	.	2f/
.	.	.	2d/
.	4B\	.	.
=23	=23	=23	=23
[0.C	0.c	0G	1e
.	.	.	1c
.	.	2A/	1r
.	.	2G/	.
=24	=24	=24	=24
0.C]	2A/	2c\	1.e
.	2G/	2d\	.
.	2c\	1e	.
.	2d\	.	2f/
.	1e	1c	1g
=25	=25	=25	=25
0.D	1d	1r	1f
.	2B\	1d	2g/
.	2A/	.	1a
.	1d	1B	.
.	.	.	[2b\
=26	=26	=26	=26
1r	2G/	2G/	2b\]
.	2A/	2F/	1a
1r	2B\	2G/	.
.	2c\	2E/	2g/
1BB	1d	1D	2.f/
.	.	.	4e/
=27	=27	=27	=27
0.E	0.G	1r	1.g
.	.	[0B	.
.	.	.	2f/
.	.	.	1e
=28	=28	=28	=28
!!linebreak:original
0G	0.r	0B]	1d
.	.	.	1g
1D	.	1d	2a/
.	.	.	[2b\
=29	=29	=29	=29
1E	1.G	1r	2b\]
.	.	.	2cc\
1BB	.	0d	2b\
.	1B	.	2g/
1D	.	.	[1f
.	2A/	.	.
=30	=30	=30	=30
0.D	2A/	1d	2f/]
.	2.d\	.	2g/
.	.	2r	2b-i\
.	4c\	.	.
.	2d\	2A/	1a
.	2A/	1d	.
.	2B\	.	2f/
=31	=31	=31	=31
1C	0c	1e	1e
0AA	.	1c	2a/
.	.	.	2b\
.	1e	1A	1cc
=32	=32	=32	=32
1r	2d\	2r	2.dd\
.	1d	1f	.
.	.	.	4cc\
1r	.	.	4b\
.	.	.	4a/
.	2c\	2e\	2.a/
1BB	1B	1d	.
.	.	.	4f/
.	.	.	2g/
=33	=33	=33	=33
[0.D	1.A	1r	2r
.	.	.	1a
.	.	0d	.
.	2B\	.	2d/
.	2A/	.	2.f/
.	[2d\	.	.
.	.	.	4g/
=34	=34	=34	=34
0D]	2d\]	1A	1a
.	2A/	.	.
.	2d\	1B	1d
.	2f\	.	.
1C	1e	1c	1r
=35	=35	=35	=35
!!linebreak:original
[0.D	0d	0A	2.f/
.	.	.	4g/
.	.	.	0a
.	[1A	[1d	.
=36	=36	=36	=36
0D]	1A]	1d]	0f
.	0d	1A	.
1BB	.	1B	1g
=37	=37	=37	=37
1r	1c	1c	1e
1r	1B	1G	2d/
.	.	.	2.g/
1E	[1G	1r	.
.	.	.	4a/
.	.	.	[2b\
=38	=38	=38	=38
0G	1G]	[0.d	4b\]
.	.	.	4g/
.	.	.	2g/
.	1B	.	2d/
.	.	.	1g
[1D	[1A	.	.
.	.	.	2f/
=39	=39	=39	=39
1D]	1A]	1d]	2f/
.	.	.	2e/
1E	0G	0B	2.g/
.	.	.	4f/
1BB	.	.	1d
=40	=40	=40	=40
0D	1D	1A	1r
.	1.A	1r	1d
1D	.	1d	1f
.	4G/	.	.
.	4F/	.	.
=41	=41	=41	=41
1C	1E	1.e	1g
0AA	1r	.	1.a
.	.	2c\	.
.	[1A	[1c	.
.	.	.	4g/
.	.	.	4f/
=42	=42	=42	=42
!!linebreak:original
1r	1A]	2c\]	1e
.	.	4B\	.
.	.	4c\	.
1r	0D	1d	2f/
.	.	.	1d
1BB	.	1r	.
.	.	.	2B/
=43	=43	=43	=43
[0.D	2.F/	1.d	1A
.	4G/	.	.
.	1.A	.	1r
.	.	2e\	.
.	.	1f	[1a
.	[2F/	.	.
=44	=44	=44	=44
1D]	1F]	1d	2a/]
.	.	.	4g/
.	.	.	4f/
0C	2.A/	0e	1e
.	4G/	.	.
.	1E	.	2.g/
.	.	.	4a/
=45	=45	=45	=45
[0.D	1.F	0d	1b
.	.	.	1.a
.	2D/	.	.
.	2F/	[1A	.
.	2G/	.	[2f/
=46	=46	=46	=46
1D]	2A/	1A]	2f/]
.	4G/	.	4e/
.	4A/	.	4f/
0BB	2B\	0d	2.g/
.	1G	.	.
.	.	.	4f/
.	.	.	1d
.	2F/	.	.
=47	=47	=47	=47
0.AAl	0.Al	0.cl	1r
.	.	.	0el
!!LO:LB:i:g=z
=48||	=48||	=48||	=48||
*>B	*>B	*>B	*>B
!!section: Pleni
!!!OMD: Pleni
*k[]	*k[]	*k[]	*k[]
*M3/1	*M3/1	*M3/1	*M3/1
*met(O)	*met(O)	*met(O)	*met(O)
0.r	0.r	0.e	1.g
.	.	.	2a/
.	.	.	2b\
.	.	.	4a/
.	.	.	4b\
=49	=49	=49	=49
!!pagebreak:original
0.r	0.r	1e	1cc
.	.	0f	2dd\
.	.	.	2cc\
.	.	.	1a
=50	=50	=50	=50
0.r	0.r	2e\	2g/
.	.	2f\	1a
.	.	1d	.
.	.	.	2f/
.	.	1c	2e/
.	.	.	[2a/
=51	=51	=51	=51
0.r	0.r	2f\	4a/]
.	.	.	8g/L
.	.	.	8a/J
.	.	2e\	2g/
.	.	2f\	2d/
.	.	1d	2f/
.	.	.	1e
.	.	2c#i\	.
=52	=52	=52	=52
1r	0.r	1d	0d
1r	.	2r	.
.	.	2d\	.
1D	.	2.f\	1r
.	.	4g\	.
=53	=53	=53	=53
0D	0.r	0a	0.r
1D	.	1f	.
=54	=54	=54	=54
1E	0.r	1g	0.r
0F	.	0a	.
=55	=55	=55	=55
0G	0.r	1d	0.r
.	.	2e\	.
.	.	1g	.
1D	.	.	.
.	.	2f\	.
=56	=56	=56	=56
!!linebreak:original
1E	0.r	2e\	0.r
.	.	1c	.
0F	.	.	.
.	.	2B\	.
.	.	1A	.
=57	=57	=57	=57
0G	2d\	1G	0.r
.	4c\	.	.
.	4d\	.	.
.	2e\	1r	.
.	2.d\	.	.
1D	.	1r	.
.	4c\	.	.
.	2A/	.	.
=58	=58	=58	=58
0G	2G/	0.r	0.r
.	1d	.	.
.	2.B\	.	.
1D	.	.	.
.	4A/	.	.
.	2A/	.	.
=59	=59	=59	=59
1E	2E/	0.r	0.r
.	1G	.	.
0C	.	.	.
.	2F/	.	.
.	1E	.	.
=60	=60	=60	=60
0D	1D	0.r	1a
.	1r	.	2b\
.	.	.	1dd
1E	1r	.	.
.	.	.	2cc\
=61	=61	=61	=61
1C	0.r	1r	2a/
.	.	.	4g/
.	.	.	4a/
0BB	.	1r	2b\
.	.	.	1g
.	.	1d	.
.	.	.	2f/
=62	=62	=62	=62
[0.AA	0.r	1.c	2.a/
.	.	.	4g/
.	.	.	1e
.	.	2d\	.
.	.	[1e	2a/
.	.	.	2cc\
=63	=63	=63	=63
!!linebreak:original
0.AA]	2r	2e\]	2b\
.	2A/	1f	1a
.	2.F/	.	.
.	.	4e\	2f/
.	4G/	4d\	.
.	1A	1c	2.e/
.	.	.	4c/
=64	=64	=64	=64
0.r	1D	1f	2d/
.	.	.	2A/
.	1A	2e\	1r
.	.	1f	.
.	1B	.	1r
.	.	2d\	.
=65	=65	=65	=65
0.r	1.A	2c\	0.r
.	.	2f\	.
.	.	2e\	.
.	1.G	2.g\	.
.	.	4f\	.
.	.	4e\	.
.	.	4d\	.
=66	=66	=66	=66
0.r	1A	2f\	0.r
.	.	2.e\	.
.	2D/	.	.
.	.	4d\	.
.	2F/	1d	.
.	1E	.	.
.	.	2c#i\	.
=67	=67	=67	=67
0.D	1r	0.d	0a
.	0A	.	.
.	.	.	1f
=68	=68	=68	=68
1E	1G	0.r	1g
0F	0c	.	0a
=69	=69	=69	=69
0G	1e	0g	1.b
.	1.d	.	.
.	.	.	2cc\
1D	.	1f	1dd
.	2c\	.	.
=70	=70	=70	=70
!!linebreak:original
1E	1B	1e	1g
0F	0A	1d	2a/
.	.	.	1a
.	.	1c	.
.	.	.	2f/
=71	=71	=71	=71
0G	0G	0B	1e
.	.	.	0d
[1D	[1F	[1A	.
=72	=72	=72	=72
1D]	1F]	1A]	1f
0G	1r	0B	1e
.	1G	.	[1d
=73	=73	=73	=73
1D	2F/	1d	1d]
.	1A	.	.
1E	.	2.c\	1r
.	4G/	.	.
.	4F/	4d\	.
1C	1E	1e	1g
=74	=74	=74	=74
0D	2D/	1.A	2.f/
.	1F	.	.
.	.	.	4g/
.	.	.	2a/
.	4E/	2B\	2f/
.	4D/	.	.
1E	1C	2c\	2g/
.	.	2A/	2e/
=75	=75	=75	=75
1BB	2BB/	2B\	2d/
.	1D	2G/	2g/
0AA	.	2A/	2f/
.	2E/	2E/	1e
.	2.C/	1F	.
.	.	.	4d/
.	4BB/	.	4c/
=76	=76	=76	=76
0.GGl	0.Dl	0.Gl	0.Bl
!!pagebreak:original
!!LO:LB:i:g=z
=77||	=77||	=77||	=77||
*>C	*>C	*>C	*>C
!!section: Osanna I
!!!OMD: Osanna I
*k[]	*k[]	*k[]	*k[]
*M3/1	*M3/1	*M3/1	*M3/1
*met(O)	*met(O)	*met(O)	*met(O)
0.C	0E	2G/	0.r
.	.	2A/	.
.	.	2G/	.
.	.	1E	.
.	1C	.	.
.	.	2A/	.
=78	=78	=78	=78
1C	1E	2G/	0.r
.	.	1c	.
0D	0F	.	.
.	.	2B\	.
.	.	2B\	.
.	.	2A/	.
=79	=79	=79	=79
0.C	1G	1.c	1e
.	2A/	.	2f/
.	2G/	2d\	1g
.	1c	1e	.
.	.	.	2a/
=80	=80	=80	=80
0.r	1r	2d\	2b\
.	.	1A	1cc
.	1c	.	.
.	.	2c\	1a
.	1d	1B	.
.	.	.	2g#i/
=81	=81	=81	=81
0.D	1D	1A	1.a
.	2.F/	0d	.
.	.	.	2f/
.	4G/	.	.
.	2B-i\	.	1f
.	[2A/	.	.
=82	=82	=82	=82
0.C	2A/]	0.r	0.r
.	1G	.	.
.	2F/	.	.
.	1E	.	.
=83	=83	=83	=83
0.D	1D	1d	0a
.	1r	1A	.
.	1D	1B	1f
=84	=84	=84	=84
!!linebreak:original
0.E	1C	1c	1.g
.	0G	[0B	.
.	.	.	1e
.	.	.	2d/
=85	=85	=85	=85
0BB	1G	0.B]	0.d
.	1D	.	.
[1GG	1G	.	.
=86	=86	=86	=86
1GG]	1B	1G	0e
0AA	0A	0c	.
.	.	.	1f
=87	=87	=87	=87
1BB	1G	1d	1g
0AA	2F#i/	2.c\	0a
.	1F#i	.	.
.	.	4B\	.
.	.	1A	.
.	2E/	.	.
=88	=88	=88	=88
0.GG	2.G/	1D	1.b
.	4F/	.	.
.	1D	0G	.
.	.	.	2g/
.	1r	.	1g
=89	=89	=89	=89
1.BB	0.D	1.G	1r
.	.	.	1r
2AA/	.	2A/	.
1BB	.	2G/	1g
.	.	[2D/	.
=90	=90	=90	=90
1GG	1G	2D/]	1b
.	.	2d\	.
0AA	2F/	2c\	2.a/
.	2G/	2A/	.
.	.	.	4f/
.	1A	2.c\	1e
.	.	4d\	.
=91	=91	=91	=91
!!linebreak:original
0.GG	1B	2e\	2r
.	.	2d\	1d
.	0G	0B	.
.	.	.	2.g/
.	.	.	4f/
.	.	.	4e/
.	.	.	4d/
=92	=92	=92	=92
0.r	1A	1c	2c/
.	.	.	2f/
.	2B-\	2d\	2g/
.	2A/	1c	1a
.	1F	.	.
.	.	2A/	2d/
=93	=93	=93	=93
0.r	2G/	2B-\	4e/
.	.	.	4d/
.	2A/	1A	2e/
.	1D	.	2f/
.	.	2F/	1d
.	1E	1G	.
.	.	.	2c#i/
=94	=94	=94	=94
0.Dl	0.Dl	0.Al	0.dl
!!LO:LB:i:g=z
=95||	=95||	=95||	=95||
*>D	*>D	*>D	*>D
!!section: Benedictus and Osanna II
!!!OMD: Benedictus and Osanna II
*M2/1	*M2/1	*M2/1	*M2/1
*met(C|)	*met(C|)	*met(C|)	*met(C|)
0r	0r	[0A	0e
=96	=96	=96	=96
0r	0r	0A]	1f
.	.	.	[1a
=97	=97	=97	=97
0r	0r	0B	2a/]
.	.	.	2g/
.	.	.	1g
=98	=98	=98	=98
!!linebreak:original
0r	0r	0A	1f
.	.	.	[1e
=99	=99	=99	=99
0r	0r	1c	1e]
.	.	1d	[1d
=100	=100	=100	=100
0r	0r	0e	2d/]
.	.	.	2B/
.	.	.	1c
=101	=101	=101	=101
0r	0r	[0f	1d
.	.	.	1A
=102	=102	=102	=102
0r	0r	0f]	1r
.	.	.	[1a
=103	=103	=103	=103
0r	0r	[0e	2a/]
.	.	.	2g/
.	.	.	2g/
.	.	.	2a/
=104	=104	=104	=104
0r	0r	1e]	1.cc
.	.	1d	.
.	.	.	2b\
=105	=105	=105	=105
!!pagebreak:original
0r	0r	2A/	2a/
.	.	2c\	1a
.	.	1B	.
.	.	.	2g/
=106	=106	=106	=106
0r	0r	1A	2f/
.	.	.	1e
.	.	2c\	.
.	.	2B\	2g/
=107	=107	=107	=107
0r	0r	1d	2f/
.	.	.	1a
.	.	2.A/	.
.	.	.	2f/
.	.	4B\	.
=108	=108	=108	=108
0r	0r	2c\	2e/
.	.	1d	2d/
.	.	.	1e
.	.	2c#i\	.
=109	=109	=109	=109
0r	0r	0d	0d
=110	=110	=110	=110
0r	0r	0r	0r
=111	=111	=111	=111
0r	0r	[0e	0A
=112	=112	=112	=112
!!linebreak:original
0r	0r	0e_	1G
.	.	.	[1A
=113	=113	=113	=113
0r	0r	0e]	1A]
.	.	.	1c
=114	=114	=114	=114
0r	0r	[0f	1d
.	.	.	1B
=115	=115	=115	=115
0r	0r	0f]	1d
.	.	.	[1d
=116	=116	=116	=116
0r	0r	0e	1d]
.	.	.	1c
=117	=117	=117	=117
0r	0r	0d	1.f
.	.	.	2g/
=118	=118	=118	=118
0r	0r	1r	1a
.	.	1d	1b
=119	=119	=119	=119
!!linebreak:original
0r	0r	1A	1cc
.	.	[1d	2b\
.	.	.	[2a/
=120	=120	=120	=120
0r	0r	1d]	2a/]
.	.	.	2f/
.	.	2c\	1e
.	.	2d\	.
=121	=121	=121	=121
0r	0r	1e	2b\
.	.	.	2cc\
.	.	2d\	2.dd\
.	.	[2d\	.
.	.	.	4cc\
=122	=122	=122	=122
0r	0r	2d\]	4b\
.	.	.	4a/
.	.	2c\	1a
.	.	1B	.
.	.	.	2g#i/
=123	=123	=123	=123
0r	0r	0A	1a
.	.	.	1cc
=124	=124	=124	=124
[0BB	1.B	0d	1b
.	.	.	[1b
.	2c\	.	.
=125	=125	=125	=125
0BB]	0d	0B	1b]
.	.	.	1g
=126	=126	=126	=126
!!linebreak:original
[0D	0D	1r	1b
.	.	1A	[1a
=127	=127	=127	=127
0D]	1.A	0d	1a]
.	.	.	1f
.	2B\	.	.
=128	=128	=128	=128
0C	0c	0e	1g
.	.	.	1e
=129	=129	=129	=129
0D	0A	0d	1f
.	.	.	[1d
=130	=130	=130	=130
0BB	0d	1r	1d]
.	.	1D	1f
=131	=131	=131	=131
1r	0c	1A	0e
1E	.	[1G	.
=132	=132	=132	=132
0G	0B	1G]	0d
.	.	2B\	.
.	.	2c\	.
=133	=133	=133	=133
!!pagebreak:original
0D	1A	1d	1r
.	1A	1f	1d
=134	=134	=134	=134
1E	1r	1e	0B
1BB	1G	[1d	.
=135	=135	=135	=135
[0D	1F	1d]	0A
.	[1A	1d	.
=136	=136	=136	=136
0D]	0A]	0f	1a
.	.	.	[1a
=137	=137	=137	=137
1C	0c	0e	0a]
1AA	.	.	.
=138	=138	=138	=138
1BB	0B	0d	1g
[1D	.	.	1f
=139	=139	=139	=139
1D]	1r	0A	0e
1C	1c	.	.
=140	=140	=140	=140
!!linebreak:original
[0D	0A	1.d	1r
.	.	.	[1f
.	.	2c\	.
=141	=141	=141	=141
1D]	0d	1A	1f]
1BB	.	1r	1d
=142	=142	=142	=142
1r	0c	1A	1.e
1E	.	[1G	.
.	.	.	4d/
.	.	.	4c/
=143	=143	=143	=143
[0G	1r	1G]	1B
.	1d	1B	1r
=144	=144	=144	=144
1G]	1.d	1G	1b
[1D	.	1A	1a
.	2c\	.	.
=145	=145	=145	=145
1D]	1A	1F	1dd
1E	[1G	1r	1cc
=146	=146	=146	=146
1BB	1G]	[0d	1.b
[1D	1r	.	.
.	.	.	2a/
=147	=147	=147	=147
!!linebreak:original
0D]	1A	1d]	1.a
.	1D	1B	.
.	.	.	2f/
=148	=148	=148	=148
1C	1E	0c	1g
1AA	[1F	.	1a
=149	=149	=149	=149
1BB	1F]	1B	0d
[1D	1D	1A	.
=150	=150	=150	=150
1D]	0A	1r	1f
1C	.	1c	1e
=151	=151	=151	=151
[0D	1r	0A	2d/
.	.	.	1d
.	1F	.	.
.	.	.	2c/
=152	=152	=152	=152
0D]	1.F	0r	2B/
.	.	.	2A/
.	.	.	[1A
.	2E/	.	.
=153	=153	=153	=153
0BB	0D	0d	1A]
.	.	.	1G#i
=154	=154	=154	=154
!!linebreak:original
0AA	0E	0c	0A
=155	=155	=155	=155
0D	1.F	[0d	1r
.	.	.	1d
.	2G/	.	.
=156	=156	=156	=156
1r	0A	0d]	1.f
1D	.	.	.
.	.	.	2g/
=157	=157	=157	=157
0D	1r	0f	0a
.	1d	.	.
=158	=158	=158	=158
1E	0c	1r	1g
1F	.	1f	1a
=159	=159	=159	=159
[0G	0B	0d	1b
.	.	.	[1g
=160	=160	=160	=160
1G]	0d	1G	1g]
1D	.	1A	1f
=161	=161	=161	=161
!!pagebreak:original
1E	1c	1G	2g/
.	.	.	1a
1F	1A	1D	.
.	.	.	2f/
=162	=162	=162	=162
0G	0G	0B-	1e
.	.	.	[1d
=163	=163	=163	=163
1D	1F	1A	0d]
[1G	[1B-i	1G	.
=164	=164	=164	=164
1G]	2B-\]	1r	1e
.	2G/	.	.
1D	1A	1d	1f
=165	=165	=165	=165
1E	0G	1B	1g
1C	.	1c	1e
=166	=166	=166	=166
0D	0F	1A	1f
.	.	1B	1d
=167	=167	=167	=167
1E	0E	1c	1c
1C	.	[1A	2e/
.	.	.	[2g/
=168	=168	=168	=168
!!linebreak:original
0BB	0D	2A/]	2g/]
.	.	2F/	2f/
.	.	1G	1d
=169	=169	=169	=169
0AA	0E	1A	1r
.	.	[1c	1a
=170	=170	=170	=170
0r	0r	2c\]	1.a
.	.	2d\	.
.	.	2f\	.
.	.	[2e\	2b\
=171	=171	=171	=171
0r	0r	2e\]	1cc
.	.	2c\	.
.	.	2d\	2a/
.	.	2A/	[2a/
=172	=172	=172	=172
0r	0r	1B	2a/]
.	.	.	2g/
.	.	1A	2a/
.	.	.	2e/
=173	=173	=173	=173
0r	0r	1B	2r
.	.	.	2.g/
.	.	1c	.
.	.	.	4f/
.	.	.	2e/
=174	=174	=174	=174
0r	0r	1d	2d/
.	.	.	2f/
.	.	1A	2e/
.	.	.	2a/
=175	=175	=175	=175
!!linebreak:original
0r	1r	1d	4b\
.	.	.	4a/
.	.	.	4g/
.	.	.	4f/
.	1A	1c	1e
=176	=176	=176	=176
1r	1B	1d	2d/
.	.	.	1d
1D	1A	[1f	.
.	.	.	2B/
=177	=177	=177	=177
[0D	0d	1f]	1A
.	.	1f	1r
=178	=178	=178	=178
0D]	1A	1d	0a
.	1d	1f	.
=179	=179	=179	=179
0E	1B	0e	1g
.	1G	.	[1cc
=180	=180	=180	=180
0F	0A	1r	1cc]
.	.	1c	1a
=181	=181	=181	=181
[0G	1G	1e	1b
.	[1B-	1d	1g
=182	=182	=182	=182
!!linebreak:original
1G]	1B-]	1G	1d
1D	1A	1d	1f
=183	=183	=183	=183
1E	1G	1c	1g
1F	1D	1d	1a
=184	=184	=184	=184
1G	[0d	1r	1.b
1D	.	1f	.
.	.	.	2a/
=185	=185	=185	=185
0G	0d]	1g	1b
.	.	1d	1g
=186	=186	=186	=186
1D	1r	1f	1a
1E	1B	[1e	2g/
.	.	.	[2g/
=187	=187	=187	=187
0C	0c	1e]	2g/]
.	.	.	2f/
.	.	1g	1e
=188	=188	=188	=188
0D	1A	0f	0d
.	1F	.	.
=189	=189	=189	=189
!!pagebreak:original
0E	1G	0e	1c
.	1E	.	[1B
=190	=190	=190	=190
1BB	0D	0r	1B]
1GG	.	.	1d
=191	=191	=191	=191
0AA	1r	0f	1c
.	[1A	.	[1f
=192	=192	=192	=192
1r	0A]	0c	2f/]
.	.	.	2e/
1C	.	.	[1e
=193	=193	=193	=193
0C	1G	0e	1e]
.	1E	.	[1c
=194	=194	=194	=194
0D	1D	0f	2c/]
.	.	.	2A/
.	1F	.	1B
=195	=195	=195	=195
0C	1E	0g	1c
.	[1C	.	1e
=196	=196	=196	=196
!!linebreak:original
0D	2C/]	0r	1d
.	2AA/	.	.
.	1BB	.	1f
=197	=197	=197	=197
0C	1C	0r	0e
.	1E	.	.
=198	=198	=198	=198
0D	0D	0f	0A
=199	=199	=199	=199
0E	0C	1e	0r
.	.	1c	.
=200	=200	=200	=200
1BB	0D	1r	0r
1GG	.	1B	.
=201	=201	=201	=201
0AA	0C	1c	0e
.	.	1e	.
=202	=202	=202	=202
1r	1D	1d	1f
1C	[1E	[1c	[1g
=203	=203	=203	=203
!!linebreak:original
0C	1E]	1c]	1g]
.	1C	1c	1e
=204	=204	=204	=204
0D	1F	1B	1d
.	[1A	1A	1f
=205	=205	=205	=205
0C	2A/]	1c	1e
.	2G/	.	.
.	1E	1e	1c
=206	=206	=206	=206
0D	1F	1d	1r
.	1D	1B	1f
=207	=207	=207	=207
0C	0E	0c	1g
.	.	.	[1a
=208	=208	=208	=208
0D	0D	1r	1a]
.	.	1d	1f
=209	=209	=209	=209
0E	1r	1B	1g
.	1C	1c	1e
=210	=210	=210	=210
!!linebreak:original
1BB	1.D	0B	0d
1GG	.	.	.
.	2E/	.	.
=211	=211	=211	=211
0AA	2F/	0A	0c
.	2G/	.	.
.	1E	.	.
=212	=212	=212	=212
0BB	0D	1r	1r
.	.	1G	1d
=213	=213	=213	=213
0AA	1.C	0A	1e
.	.	.	1f
.	2D/	.	.
=214	=214	=214	=214
0GG	1E	[0B	1g
.	[1G	.	[1d
=215	=215	=215	=215
1BB	1G]	1B]	1d]
1AA	1F	1c	1a
=216	=216	=216	=216
1BB	1G	0B	1g
1GG	1E	.	1b
=217	=217	=217	=217
!!pagebreak:original
0AA	0F	1r	2a/
.	.	.	1a
.	.	1A	.
.	.	.	2f/
=218	=218	=218	=218
[0GG	1r	0B	2.g/
.	.	.	4f/
.	1G	.	1d
=219	=219	=219	=219
0GG]	0B-	0G	1r
.	.	.	1g
=220	=220	=220	=220
0r	1A	1.c	2f/
.	.	.	1e
.	2r	.	.
.	[2A/	2A/	2c/
=221	=221	=221	=221
0r	2A/]	1d	1B
.	2G/	.	.
.	2A/	2c\	1A
.	[2D/	[2d\	.
=222	=222	=222	=222
0r	2D/]	2d\]	2B/
.	2F/	1A	1d
.	1E	.	.
.	.	2G/	2c#i/
=223	=223	=223	=223
0Dl	0Dl	0Al	0dl
==	==	==	==
*-	*-	*-	*-
!!!RDF**kern: l=long note in original notation
!!!RDF**kern: i=editorial accidental
!!!ENC:	Will Watson 14/3/2012
!!!END:	2012/03/14/
!!!EED:	Jesse Rodin
!!!EEV:	2012/03/17/
!!!ONB:	Translated from MusicXML and edited on 2012/03/17/ by Craig Sapp
!!muse2ps: T^@{OPR}^u^@{ONM}{. }@{OTL}^C^@{COM}^i2I100v85,90,85,150Q16
